X: 167
T: Kerry Lasses #1
R: Reel
M: 4/4
K: D maj 
~F3G AF~F2 | AG~G2 dcAG | ~F3G AF~F2 | B2 AG FDDE  |
~F3G AF~F2 | AG~G2 dcAG | ~F3G AF~F2 | B2 AG FD cd ||
~e2ed cBcd  | eg~g2 eaag |  efed cBcd  | egec d2cd  |
~e2ed cBcd  | eg~g2 e~a3 | ~a3g efed  |cd ec dBAG   ||

